X:71
T: November Days
L: 1/4
C: Noel Jackson 2002
K: G
B3/2 ^A/ B | E F G | A G F | G F _B | B3/2 ^A/ B | E F G | A G F | _E2 c |
B3/2 c/ B | E F G | A G F | B A G | A G c | B -B A | G F E | B, ^C G | E2 :|
F3/2 E/ F | c B A | G F G | A F D | A G A | c B A | e d c | A2 _B |
B c B | E F G | A B c | B A G | B _B A | G F E | B, ^C G | E2 :|

